src/icons/watchman.svg

<svg viewBox="0 0 420 419" xmlns="http://www.w3.org/2000/svg"><circle cx="210" cy="209.5" fill="#fff" style="paint-order:stroke fill markers" r="188.15"/><path d="M191.07 397.1c-35.512-4.049-66.779-16.485-95.318-37.913-22.723-17.061-44.027-43.274-56.077-68.997l-3.932-8.393 25.692-26.37c14.13-14.505 27.522-28.059 29.758-30.12l4.067-3.748 12.5 11.364c16.495 14.996 26.818 23.219 41.05 32.697 14.94 9.95 23.867 14.578 35.877 18.597 22.823 7.637 42.099 5.991 66.082-5.642 17.83-8.65 44.399-28.24 66.179-48.797l8.878-8.38 29.147 29.137c16.03 16.025 29.147 29.84 29.147 30.7s-1.6 4.912-3.554 9.005c-18.398 38.533-49.46 69.834-87.797 88.466-17.732 8.619-33.936 13.787-53.563 17.084-10.16 1.708-38.005 2.465-48.137 1.31zm6.3-123.69c-17.457-3.809-39.276-16.397-63.835-36.829-13.001-10.816-26.615-23.771-26.615-25.327 0-1.265 16.792-17.101 29.7-28.009 20.328-17.179 36.936-27.484 53.753-33.355 6.275-2.19 8.25-2.443 19.147-2.443 10.892 0 12.873.253 19.136 2.44 22.614 7.894 50.68 27.157 79.189 54.35 3.836 3.659 6.975 7.021 6.975 7.472 0 1.1-21.726 20.758-32.4 29.316-19.403 15.557-41.794 28.276-56.169 31.907-8.267 2.088-20.566 2.29-28.881.477zm37.472-20.429c14.201-7.184 18.451-9.747 19.779-11.925 1.556-2.552 1.692-4.934 1.692-29.774 0-24.91-.132-27.216-1.705-29.795-1.34-2.2-5.607-4.783-20.022-12.124-18.175-9.256-18.368-9.329-24.812-9.355-6.44-.026-6.632.044-22.95 8.376-10.12 5.168-17.582 9.58-19.38 11.462l-2.925 3.06.003 27.237c.003 25.164.134 27.452 1.712 30.04 1.301 2.134 5.186 4.602 16.288 10.35 20.15 10.433 22.925 11.538 29.04 11.571 4.82.026 6.487-.627 23.28-9.123zm-40.872-12.388c-7.315-3.808-13.914-7.538-14.665-8.29-1.181-1.181-1.28-4.249-.736-22.667l.63-21.3 13.888-7.202c8.096-4.199 14.986-7.202 16.52-7.202 2.953 0 28.618 12.505 31.424 15.311 1.68 1.682 1.788 3.033 1.788 22.477v20.69l-3.46 2.183c-1.902 1.202-8.376 4.65-14.386 7.662-8.03 4.025-11.825 5.448-14.315 5.37-2.329-.075-7.546-2.273-16.688-7.032zM29.5 263.432c-1.475-3.866-4.192-15.727-5.967-26.05-2.405-13.986-2.19-43.337.424-58.05 2.41-13.562 4.216-20.627 5.613-21.959.772-.736 7.977 6.088 27.938 26.459 14.794 15.098 26.902 27.655 26.906 27.906.004.25-12.122 12.581-26.948 27.4L30.51 266.082zm333.59-24.851c-14.17-14.479-25.763-26.679-25.763-27.11 0-1.574 51.776-53.76 53.1-53.521 1.493.27 3.338 6.773 5.975 21.06 2.353 12.751 2.343 48.232-.017 61.072-2.37 12.886-5.358 24.1-6.527 24.49-.553.184-12.599-11.512-26.768-25.991zM64.75 170.903c-26.893-26.902-29.95-30.252-29.354-32.175 1.335-4.308 8.33-18.529 12.565-25.546 28.808-47.732 75.832-79.809 131.42-89.647 15.231-2.696 45.201-2.944 59.361-.492 41.827 7.244 76.236 24.833 104.91 53.625 15.582 15.647 27.713 32.758 36.971 52.151 6.183 12.95 8.732 8.549-24.429 42.185-15.984 16.213-29.386 29.61-29.782 29.768-.396.16-5.695-4.244-11.775-9.786-32.548-29.67-61.86-48.734-85.116-55.361-7.771-2.215-9.327-2.357-22.05-2.009-12.468.34-14.427.627-21.965 3.212-23.775 8.152-49.675 26.108-80.457 55.78-4.75 4.579-9.006 8.325-9.457 8.325s-14.329-13.513-30.839-30.029z" fill="#4255e5"/></svg>

<svg viewBox="0 0 420 419" xmlns="http://www.w3.org/2000/svg">
  <path
    d="M191.07 397.1C155.558 393.051 124.291 380.615 95.752 359.187C73.029 342.126 51.725 315.913 39.675 290.19L35.743 281.797L61.435 255.427C75.565 240.922 88.957 227.368 91.193 225.307L95.26 221.559L107.76 232.923C124.255 247.919 134.578 256.142 148.81 265.62C163.75 275.57 172.677 280.198 184.687 284.217C207.51 291.854 226.786 290.208 250.769 278.575C268.599 269.925 295.168 250.335 316.948 229.778L325.826 221.398L354.973 250.535C371.003 266.56 384.12 280.375 384.12 281.235C384.12 282.095 382.52 286.147 380.566 290.24C362.168 328.773 331.106 360.074 292.769 378.706C275.037 387.325 258.833 392.493 239.206 395.79C229.046 397.498 201.201 398.255 191.069 397.1H191.07ZM197.37 273.41C179.913 269.601 158.094 257.013 133.535 236.581C120.534 225.765 106.92 212.81 106.92 211.254C106.92 209.989 123.712 194.153 136.62 183.245C156.948 166.066 173.556 155.761 190.373 149.89C196.648 147.7 198.623 147.447 209.52 147.447C220.412 147.447 222.393 147.7 228.656 149.887C251.27 157.781 279.336 177.044 307.845 204.237C311.681 207.896 314.82 211.258 314.82 211.709C314.82 212.809 293.094 232.467 282.42 241.025C263.017 256.582 240.626 269.301 226.251 272.932C217.984 275.02 205.685 275.222 197.37 273.409V273.41ZM234.842 252.981C249.043 245.797 253.293 243.234 254.621 241.056C256.177 238.504 256.313 236.122 256.313 211.282C256.313 186.372 256.181 184.066 254.608 181.487C253.268 179.287 249.001 176.704 234.586 169.363C216.411 160.107 216.218 160.034 209.774 160.008C203.334 159.982 203.142 160.052 186.824 168.384C176.704 173.552 169.242 177.964 167.444 179.846L164.519 182.906L164.522 210.143C164.525 235.307 164.656 237.595 166.234 240.183C167.535 242.317 171.42 244.785 182.522 250.533C202.672 260.966 205.447 262.071 211.562 262.104C216.382 262.13 218.049 261.477 234.842 252.981ZM193.97 240.593C186.655 236.785 180.056 233.055 179.305 232.303C178.124 231.122 178.025 228.054 178.569 209.636L179.199 188.336L193.087 181.134C201.183 176.935 208.073 173.932 209.607 173.932C212.56 173.932 238.225 186.437 241.031 189.243C242.711 190.925 242.819 192.276 242.819 211.72V232.41L239.359 234.593C237.457 235.795 230.983 239.243 224.973 242.255C216.943 246.28 213.148 247.703 210.658 247.625C208.329 247.55 203.112 245.352 193.97 240.593ZM29.5 263.432C28.025 259.566 25.308 247.705 23.533 237.382C21.128 223.396 21.343 194.045 23.957 179.332C26.367 165.77 28.173 158.705 29.57 157.373C30.342 156.637 37.547 163.461 57.508 183.832C72.302 198.93 84.41 211.487 84.414 211.738C84.418 211.988 72.292 224.319 57.466 239.138L30.51 266.082L29.5 263.432ZM363.09 238.581C348.92 224.102 337.327 211.902 337.327 211.471C337.327 209.897 389.103 157.711 390.427 157.95C391.92 158.22 393.765 164.723 396.402 179.01C398.755 191.761 398.745 227.242 396.385 240.082C394.015 252.968 391.027 264.182 389.858 264.572C389.305 264.756 377.259 253.06 363.09 238.581ZM64.75 170.903C37.857 144.001 34.8 140.651 35.396 138.728C36.731 134.42 43.726 120.199 47.961 113.182C76.769 65.45 123.793 33.373 179.381 23.535C194.612 20.839 224.582 20.591 238.742 23.043C280.569 30.287 314.978 47.876 343.652 76.668C359.234 92.315 371.365 109.426 380.623 128.819C386.806 141.769 389.355 137.368 356.194 171.004C340.21 187.217 326.808 200.614 326.412 200.772C326.016 200.932 320.717 196.528 314.637 190.986C282.089 161.316 252.777 142.252 229.521 135.625C221.75 133.41 220.194 133.268 207.471 133.616C195.003 133.956 193.044 134.243 185.506 136.828C161.731 144.98 135.831 162.936 105.049 192.608C100.299 197.187 96.043 200.933 95.592 200.933C95.141 200.933 81.263 187.42 64.753 170.904L64.75 170.903Z"
    fill="#4255E5"
  />
</svg>
